X: 11309
T: Eagle's Whistle, The
R: waltz
M: 3/4
K: Gmajor
M:2/4
GA||BB d/B/A/G/|BB d/B/A/G/|BA AB/d/|BA AG/A/|
BB d/B/A/G/|BB d/B/A/d/|AG GB/d/|AG GB/d/|
gd e/d/B/d/|gd e/d/B/G/|BA AB/d/|BA AB/d/|
gd e/d/B/d/|gd e/d/B/d/|AG GB/d/|AG Gd/c/||

